X:344 a
T:Polska
T:efter Pelle Fors
O:Jonsberg, Östergötland
S:efter Carl August Månsson
B:Svenska Låtar Östergötland
Z:Björn Ek 2009-01-10
R:Polska
U:o +open+
M:3/4
D:Björnlert, Löfberg, Pekkari - Mikaelidansen
L:1/16
K:Am
%
|:oa4 ob4 oe3e|(ga)g^f d2d2 e3B|(cd)cB (A^G)AB (cd)cB|A2a2 (a^g)bg e4|
oa4 ob4 oe3e|(ga)g^f d2d2 e3B|(cd)cB (A^G)AB (cd)cB|{cdcd}c2BA ^G2A2 A4:|
%
|:(E^G)AB (cd)cB (AB)cd|e2a2 (a^g)bg (ag)^fg|(e2^g2) (a2b2) (b2c'2)|(c'2a2) (ab)a^g (ag)^fg|
(E^G)AB (cd)cB (AB)cd|e2a2 (a^g)bg (ag)^fg|(e2^g2) (a2b2) (b2c'2)|(c'2a2) (ab)a^g (ag)^fg|
(ec)eg (^fd)fd (ec)ec|(ec)eg (^fd)fd (ec)ec|(cd)cB (AB)cd (ef)ed|{cd}c2BA ^G2A2 A4:|
%
(:musicend:)
(:music:)
